frontend/src/assets/icons/message-circle-01.svg

<svg width="24" height="24" viewBox="0 0 24 24" fill="none" xmlns="http://www.w3.org/2000/svg">
<g id="message-circle-01">
<path id="Icon" d="M20.9996 11.5C20.9996 16.1944 17.194 20 12.4996 20C11.4228 20 10.3928 19.7998 9.44478 19.4345C9.27145 19.3678 9.18478 19.3344 9.11586 19.3185C9.04807 19.3029 8.999 19.2963 8.92949 19.2937C8.85881 19.291 8.78127 19.299 8.62619 19.315L3.50517 19.8444C3.01692 19.8948 2.7728 19.9201 2.6288 19.8322C2.50337 19.7557 2.41794 19.6279 2.3952 19.4828C2.36909 19.3161 2.48575 19.1002 2.71906 18.6684L4.35472 15.6408C4.48942 15.3915 4.55677 15.2668 4.58728 15.1469C4.6174 15.0286 4.62469 14.9432 4.61505 14.8214C4.60529 14.6981 4.55119 14.5376 4.443 14.2166C4.15547 13.3636 3.99962 12.45 3.99962 11.5C3.99962 6.80558 7.8052 3 12.4996 3C17.194 3 20.9996 6.80558 20.9996 11.5Z" stroke="black" stroke-width="2" stroke-linecap="round" stroke-linejoin="round"/>
</g>
</svg>

<svg xmlns="http://www.w3.org/2000/svg" width="24" height="24" fill="none" viewBox="0 0 24 24">
  <path stroke="#000" stroke-linecap="round" stroke-linejoin="round" stroke-width="2" d="M21 11.5a8.5 8.5 0 0 1-11.555 7.934c-.174-.066-.26-.1-.33-.116a.901.901 0 0 0-.186-.024 2.314 2.314 0 0 0-.303.021l-5.12.53c-.49.05-.733.075-.877-.013a.5.5 0 0 1-.234-.35c-.026-.166.09-.382.324-.814l1.636-3.027c.134-.25.202-.374.232-.494a.899.899 0 0 0 .028-.326c-.01-.123-.064-.283-.172-.604A8.5 8.5 0 1 1 21 11.5Z"/>
</svg>
